build/img/sprite/icon-full-screen.svg

<svg width="24" height="24" viewBox="0 0 24 24" fill="none" xmlns="http://www.w3.org/2000/svg">
<!-- <rect x="0.5" y="0.5" width="23" height="23" rx="4.5" fill="white" stroke="#E3E8EE"/> -->
<path fill-rule="evenodd" clip-rule="evenodd" d="M14 5.5H18.5V10H17.5V7.20711L13.3536 11.3536L12.6464 10.6464L16.7929 6.5H14V5.5ZM11.3536 13.3536L7.20711 17.5H10.5V18.5H5.5V13.5H6.5V16.7929L10.6464 12.6464L11.3536 13.3536Z" fill="currentColor"/>
</svg>

<svg width="24" height="24" fill="none" xmlns="http://www.w3.org/2000/svg"><path fill-rule="evenodd" clip-rule="evenodd" d="M14 5.5h4.5V10h-1V7.207l-4.146 4.147-.708-.708L16.793 6.5H14v-1zm-2.646 7.854L7.207 17.5H10.5v1h-5v-5h1v3.293l4.146-4.147.708.708z" fill="currentColor"/></svg>
